icons/label-percent.svg

<svg xmlns="http://www.w3.org/2000/svg" width="24" height="24" viewBox="0 0 24 24">
  <path d="M15.0924635,4 C15.6691887,4 16.2178408,4.24896086 16.5976169,4.68299078 L21.8476169,10.6829908 C22.5074124,11.4370428 22.5074124,12.5629572 21.8476169,13.3170092 L16.5976169,19.3170092 C16.2178408,19.7510391 15.6691887,20 15.0924635,20 L4,20 C2.8954305,20 2,19.1045695 2,18 L2,6 C2,4.8954305 2.8954305,4 4,4 L15.0924635,4 Z M13.7071068,14.2928932 C13.3165825,13.9023689 12.6834175,13.9023689 12.2928932,14.2928932 C11.9023689,14.6834175 11.9023689,15.3165825 12.2928932,15.7071068 C12.6834175,16.0976311 13.3165825,16.0976311 13.7071068,15.7071068 C14.0976311,15.3165825 14.0976311,14.6834175 13.7071068,14.2928932 Z M13.7071068,8.29289322 C13.3165825,7.90236893 12.6834175,7.90236893 12.2928932,8.29289322 L12.2928932,8.29289322 L6.29289322,14.2928932 L6.20970461,14.3871006 C5.90467972,14.7793918 5.93240926,15.3466228 6.29289322,15.7071068 C6.68341751,16.0976311 7.31658249,16.0976311 7.70710678,15.7071068 L7.70710678,15.7071068 L13.7071068,9.70710678 L13.7902954,9.61289944 C14.0953203,9.22060824 14.0675907,8.65337718 13.7071068,8.29289322 Z M7.70710678,8.29289322 C7.31658249,7.90236893 6.68341751,7.90236893 6.29289322,8.29289322 C5.90236893,8.68341751 5.90236893,9.31658249 6.29289322,9.70710678 C6.68341751,10.0976311 7.31658249,10.0976311 7.70710678,9.70710678 C8.09763107,9.31658249 8.09763107,8.68341751 7.70710678,8.29289322 Z"/>
</svg>

<svg xmlns="http://www.w3.org/2000/svg" viewBox="0 0 24 24">
  <path d="M15.1 4a2 2 0 0 1 1.5.68l5.25 6a2 2 0 0 1 0 2.64l-5.25 6a2 2 0 0 1-1.5.68H4a2 2 0 0 1-2-2V6c0-1.1.9-2 2-2h11.1zm-1.4 10.3a1 1 0 1 0-1.4 1.4 1 1 0 0 0 1.4-1.4zm0-6a1 1 0 0 0-1.4 0l-6 6-.09.09a1 1 0 0 0 1.5 1.32l6-6 .08-.1a1 1 0 0 0-.08-1.32zm-6 0a1 1 0 1 0-1.4 1.4 1 1 0 0 0 1.4-1.4z"/>
</svg>
